X:1
T:Ach Elslein
B:"Sing- u. Spielbuch f. d. Schule", K. Lerpinger, K.Schmidt, E. Wuerzl, Verlag f. Jugend u. Volk, Wien
Z:abc transcription Simon Wascher
F:http://simonwascher.info/
M:3/4
L:1/8
K:Gm
G2 |\
G3 AB2 | A4G2 | A3 Bc2 | d4d2 |
c4A2 | B2G4 | F6- | F6 | z4 ||
F2 |\
A4B2 | c4B2 | G3 AB2 | A4G2 |
F2D2F2 | G2A4 | G6 ||
